libs/icons/src/svg/circle-5.svg

<svg width="16" height="16" viewBox="0 0 16 16" fill="none" xmlns="http://www.w3.org/2000/svg">
<g clip-path="url(#clip0_4_387)">
<path fill-rule="evenodd" clip-rule="evenodd" d="M16 8C16 12.4183 12.4183 16 8 16C3.58172 16 0 12.4183 0 8C0 3.58172 3.58172 0 8 0C12.4183 0 16 3.58172 16 8ZM14.6666 8.00002C14.6666 11.6819 11.6819 14.6667 7.99995 14.6667C4.31806 14.6667 1.33329 11.6819 1.33329 8.00002C1.33329 4.31812 4.31806 1.33335 7.99995 1.33335C11.6819 1.33335 14.6666 4.31812 14.6666 8.00002ZM10.6496 9.33756C10.6496 10.7991 9.56515 11.8548 8.01029 11.8548C6.57393 11.8548 5.50743 10.975 5.47152 9.75411H6.76424C6.81093 10.3574 7.34597 10.7775 8.01029 10.7775C8.7967 10.7775 9.36406 10.1922 9.36047 9.36988C9.36406 8.53679 8.78234 7.9407 7.97438 7.93711C7.5327 7.93352 7.06588 8.11666 6.81811 8.38956L5.61515 8.19206L5.99938 4.40006H10.2654V5.51325H7.10179L6.88993 7.46311H6.93302C7.20593 7.13993 7.73379 6.90293 8.32988 6.90293C9.6657 6.90293 10.6496 7.92275 10.6496 9.33756Z" fill="#202327"/>
</g>
<defs>
<clipPath id="clip0_4_387">
<rect width="16" height="16" fill="white"/>
</clipPath>
</defs>
</svg>

<svg xmlns="http://www.w3.org/2000/svg" viewBox="0 0 16 16" class="sageicon"><path fill-rule="evenodd" d="M16 8A8 8 0 1 1 0 8a8 8 0 0 1 16 0Zm-1.333 0A6.667 6.667 0 1 1 1.333 8a6.667 6.667 0 0 1 13.334 0ZM10.65 9.338c0 1.461-1.085 2.517-2.64 2.517-1.436 0-2.503-.88-2.538-2.1h1.292c.047.602.582 1.022 1.246 1.022.787 0 1.354-.585 1.35-1.407.004-.833-.578-1.43-1.386-1.433-.441-.003-.908.18-1.156.453l-1.203-.198L6 4.4h4.266v1.113H7.102l-.212 1.95h.043c.273-.323.8-.56 1.397-.56 1.336 0 2.32 1.02 2.32 2.435Z"/></svg>
